X:28
T:
a/ Jucko
Z: id:dc-reel-377
M:C
L:1/8
K:Add|cABd cAGE|cABG AGEG|DGBG AGEF|G2GA BAFA|!
GBdg edBd|g2fg edBA|dedB GABd|egdB cAAe|f2gA BAA2|!
a2ea e2de|f2e2 ceed|fgaf efde|fdAF D2:|!